dist/svgs/processon.svg

<svg xmlns="http://www.w3.org/2000/svg" viewBox="0 0 512 512"><path d="M148 170q30 0 48 22 17 23 17 63t-17 63q-18 22-48 22t-48-22-18-63q0-40 18-63 18-22 48-22zM448-1q26 0 45 19t19 45v384q0 26-19 45t-45 19H64q-26 0-45-19T0 447V63q0-26 19-45T64-1h384zM227 355q37-34 37-100 0-67-37-100-27-28-79-28t-79 28q-37 33-37 100 0 66 37 100 27 28 79 28t79-28zm234-99q0-34-18-48-18-15-45-15-21 0-37 11-8 6-17 20v-26h-45v178h47v-97q0-18 4-27 9-20 33-20 18 0 26 14 4 7 4 21v109h48V256z"/></svg>

<?xml version="1.0" encoding="UTF-8" standalone="no"?><svg   xmlns:svg="http://www.w3.org/2000/svg"   xmlns="http://www.w3.org/2000/svg"   version="1.1"   width="512"   height="512"   viewBox="0 0 512 512">  <path     d="M148 170Q178 170 196 192Q213 215 213 255T196 318Q178 340 148 340T100 318T82 255Q82 215 100 192Q118 170 148 170zM448 -1Q474 -1 493 18T512 63V447Q512 473 493 492T448 511H64Q38 511 19 492T0 447V63Q0 37 19 18T64 -1H448zM227 355Q264 321 264 255Q264 188 227 155Q200 127 148 127T69 155Q32 188 32 255Q32 321 69 355Q96 383 148 383T227 355zM461 256Q461 222 443 208Q425 193 398 193Q377 193 361 204Q353 210 344 224V198H299V376H346V279Q346 261 350 252Q359 232 383 232Q401 232 409 246Q413 253 413 267V376H461V256z"     id="processon" /></svg>
